!!!!SEGMENT: pl-lzu--m-15111--001-015_noskowski-zygmunt--spiewnik-dla-dzieci-op-34-15-wierzba.krn
!!!cenid: 18xx:4712
!!!COM: Noskowski, Zygmunt
!!!COM-rismID: pe106604
!!!CDT: 1846/05/02-1909/07/23
!!!CNT: Polish
!!!GTL: Śpiewnik dla dzieci, op. 34
!!!OTL: 15. Wierzba
!!!OMV: 015
!!!PDT: 1890
!!!AGN: Secular; Song; Children
!!!YEC: Copyright 2022 Narodowy Instytut Fryderyka Chopina (https://polishscores.org)
!!!YEM: License CC-BY-4.0 (https://creativecommons.org/licenses/by/4.0)
!!!SMS-siglum: PL-LŹu
!!!SMS-shelfmark: M 15111
!!!SMS-variant:
!!!SMS-altvar:
!!!SMS-shelfwork: 001-015 G
!!!NIFC-rismSourceID: 1001234040
!!!NIFC-rismChildID: 1001234040
!!!NIFC-islandoraID: pl-lzu:5455
!!!URL-pdf-islandora: https://repozytorium.nifc.pl/islandora/object/pl-lzu%3A5455/datastream/PDF/view
!!!URL-scan: https://polish.musicsources.pl/pl/lokalizacje/galeria/druki-muzyczne/23228/22 @EN{Scan on Polish Music Sources Website} @PL{Skany w portalu Dziedzictwo Muzyki Polskiej w otwartym dostępie}
!!!IIIF:
!!!ONB-nifc:
!!!AIN: 1 piano 1 vox
!!!key: A
!!!OMD: Moderato cantabile.
**kern	**kern	**dynam	**kern	**text	**dynam
*part2	*part2	*part2	*part1	*part1	*part1
*staff3	*staff2	*staff2/3	*staff1	*staff1	*staff1
*I"[Piano]	*I"[Piano]	*	*I"[Voice]	*	*
*I'pf	*I'[f	*	*I'V	*	*
*Ipiano	*Ipiano	*	*Ivox	*	*
*ICklav	*ICklav	*	*ICvox	*	*
*IGacmp	*IGacmp	*	*IGsolo	*	*
*clefF4	*clefG2	*	*clefG2	*	*
*k[f#c#g#]	*k[f#c#g#]	*	*k[f#c#g#]	*	*
*A:	*A:	*	*A:	*	*
*M3/4	*M3/4	*	*M3/4	*	*
=1	=1	=1	=1	=1	=1
*clefG2	*	*	*	*	*
!	!LO:TX:a:i:t=Umiarkowanie i śpiewnie.	!	!LO:TX:t=P:problem:błędne metrum, powinno być 2/4	!	!
(16ff#\LL	(16fff#\LL	p	2r	.	.
16ee\	16eee\	.	.	.	.
16a\	16aa\	.	.	.	.
16cc#\JJ)	16ccc#\JJ)	.	.	.	.
4ee\	4eee\	.	.	.	.
=2	=2	=2	=2	=2	=2
(16b/LL	(16bb\LL	.	2r	.	.
16cc#/	16ccc#\	.	.	.	.
16b/	16bb\	.	.	.	.
16g#/JJ)	16gg#\JJ)	.	.	.	.
4e/	4ee\	.	.	.	.
=3	=3	=3	=3	=3	=3
(16a/LL	(16aa\LL	.	2r	.	.
16f#/	16ff#\	.	.	.	.
16e/	16ee\	.	.	.	.
16f#/JJ	16ff#\JJ	.	.	.	.
16e/LL	16ee\LL	.	.	.	.
16c#/	16cc#\	.	.	.	.
16A/	16a\	.	.	.	.
16c#/JJ	16cc#\JJ	.	.	.	.
=4	=4	=4	=4	=4	=4
*	*	*	*^	*	*
*clefF4	*	*	*	*	*	*
16B\LL	16b/LL	.	4r	4ryy	.	.
16c#\	16cc#/	.	.	.	.	.
16B\	16b/	.	.	.	.	.
16G#\JJ)	16g#/JJ)	.	.	.	.	.
8E;\	8e;/	.	8r;	8ryy	.	.
8r	8e/	.	8e/	8e\	Ko-	p
*	*	*	*v	*v	*	*
!!LO:LB:g=original
=5	=5	=5	=5	=5	=5
*^	*	*	*	*	*
(4c#/	2A\	(4ee 4a\	.	4ee 4a/	-can-	.
8B/L	.	8ddL 8f#/	.	8dd 8f#/	-ki,	.
8d/J)	.	8bJ 8g#/)	.	8b 8g#/	ko-	.
=6	=6	=6	=6	=6	=6	=6
(4c#/	2A\	(4ee 4a\	.	4ee 4a\	-can-	.
8B/L	.	8ddL 8f#/	.	8dd 8f#,/	-ki,	.
8d/J)	.	8bJ 8g#/)	.	8b 8g#/	Ga-	.
=7	=7	=7	=7	=7	=7	=7
*	*	*	*	*^	*	*
(4e/	2A\	(4cc# 4a\	.	4cc# 4a/	4ryy	-łąz-	.
8d/L	.	16bLL 16f#/	.	(<16b/LL	8f#\	-ka	.
.	.	16a/	.	16a/JJ)	.	.	.
8B/J)	.	16f# 16d/	.	(<16f#/LL	8d\	wierz-	.
.	.	16g#/JJ	.	16g#/JJ)	.	.	.
*v	*v	*	*	*v	*v	*	*
=8	=8	=8	=8	=8	=8
4c# 4A\	4a 4e/	.	4a 4c#/	-bo-	.
8c# 8A\	8e/)	.	8e 8c#/	-wa!	.
8r	8r	.	8r	.	.
!!LO:PB:g=original
=9	=9	=9	=9	=9	=9
2A 2D\	(8f#L 8d/	.	8f# 8d/	Roz-	.
.	8g# 8e/	.	8g# 8e/	-wi-	.
.	8a 8f#/	.	8a 8f#/	-nę-	.
.	8g#J 8e/)	.	8g# 8e/	-ła	.
=10	=10	=10	=10	=10	=10
4A 4F#\	4a 4d/	<	4a 4d/	nam	<
8AL 8D\	8bL 8f#/	[	8b 8f#,/	się	[
8BJ 8C#\	8cc#J 8f#/	.	8cc# 8f#/	Ta	.
=11	=11	=11	=11	=11	=11
!	!	!LO:DY:rj	!	!	!LO:DY:rj
4.A 4.F# 4.BB\	4dd 4f# 4d/	f	4dd 4f#^>/	pal-	f
.	(8cc#L 8f#/	.	8cc# 8f#/	-ma	.
8A 8F# 8BB\	8bJ 8d/)	.	8b 8d/	kwie-	.
=12	=12	=12	=12	=12	=12
*	*^	*	*^	*	*
2G# 2E\	(<8cc#/L	4d\	>	(<8cc#/L	4d\	-tnio-	>
.	8b/J)	.	.	8b/J)	.	.	.
.	4e 4d/	4ryy	]	4e 4d,/	4ryy	-wa.	]
*	*v	*v	*	*	*	*	*
*	*	*	*v	*v	*	*
!!LO:LB:g=original
=13	=13	=13	=13	=13	=13
!	!	!	!	!	!LO:DY:rj
2E 2AA/	(16c#/LL	p	8e 8c#/	Roz-	p
.	16e/	.	.	.	.
.	16ee 16a/	.	8ee 8a/	-wi-	.
.	16e/JJ	.	.	.	.
.	16ddLL 16f#/	.	8dd 8f#/	-nę-	.
.	16a/	.	.	.	.
.	16b 16g#/	.	8b 8g#/	-ła	.
.	16e/JJ)	.	.	.	.
=14	=14	=14	=14	=14	=14
2E 2AA/	(16eeLL 16a/	.	4ee 4a/	nam	.
.	16e/	.	.	.	.
.	16c#/	.	.	.	.
.	16e/JJ	.	.	.	.
.	16ddLL 16f#/	.	8dd 8f#/	się	.
.	16a/	.	.	.	.
.	16b 16g#/	.	8b 8g#/	Nad	.
.	16d/JJ)	.	.	.	.
=15	=15	=15	=15	=15	=15
*^	*	*	*^	*	*
4E 4AA/	4ryy	(16cc#LL 16a/	.	4cc# 4a/	4ryy	by-	.
.	.	16c#/	.	.	.	.	.
.	.	16f#/	.	.	.	.	.
.	.	16e/JJ	.	.	.	.	.
(<8d/L	4A\	16bLL 16f#/	.	16b/LL	8f#\	-strą	.
.	.	16a/	.	16a/JJ	.	.	.
8B/J)	.	16f# 16d/	.	16f#/LL	8d\	tą	.
.	.	16g#/JJ)	.	16g#/JJ	.	.	.
*v	*v	*	*	*v	*v	*	*
=16	=16	=16	=16	=16	=16
4c# 4A\	(16aLL 16e/	.	4a 4c#/	wo-	.
.	16f#/	.	.	.	.
.	16e/	.	.	.	.
.	16f#/JJ	.	.	.	.
(16c#\LL	8e/)	.	8e 8c#/	-dą,	.
16B\	.	.	.	.	.
16A\	8r	.	8r	.	.
16E\JJ)	.	.	.	.	.
!!LO:LB:g=original
=17	=17	=17	=17	=17	=17
4D\	(16f#LL 16d/	.	8f# 8d/	Za-	.
.	16c#/	.	.	.	.
.	16g# 16e/	.	8g# 8e/	-pach-	.
.	16d/JJ	.	.	.	.
(16D\LL	8aL 8f#/	.	8a 8f#/	-nia-	.
16A\	.	.	.	.	.
16d\	8g#J 8e/)	.	8g# 8e/	-ła	.
16A\JJ	.	.	.	.	.
=18	=18	=18	=18	=18	=18
16F#\LL	(4a 4d/	<	4a 4d/	wio-	<
16G#\	.	.	.	.	.
16F#\	.	.	.	.	.
16E\JJ	.	.	.	.	.
8AL 8D\	16bLL 16f#/	[	8b 8f#/	-sna	[
.	16d/	.	.	.	.
8AJ 8C#\)	16cc# 16f#/	.	8cc# 8f#/	Kwie-	.
.	16d/JJ)	.	.	.	.
=19	=19	=19	=19	=19	=19
!	!	!LO:DY:rj	!	!	!LO:DY:rj
2A 2F# 2BB\	(16ddLL 16f#/	mf >	4dd 4f#/	-tnio-	mf >
.	16d/	.	.	.	.
.	16f#/	.	.	.	.
.	16a/JJ	.	.	.	.
.	16cc#LL 16f#/	]	8cc# 8f#,/	-wą	]
.	16e/	.	.	.	.
.	16b 16d/	.	8b 8d/	po-	.
.	16e/JJ)	.	.	.	.
=20	=20	=20	=20	=20	=20
*	*^	*	*^	*	*
!	!	!	!	!	!	!	!LO:DY:rj
(16BB\LL	4f# 4d/	4ryy	.	(4f#/	2d\	-go-	p
16F#\	.	.	.	.	.	.	.
16A\	.	.	.	.	.	.	.
16F#\JJ	.	.	.	.	.	.	.
4B 4E\)	(<8g#/L	4d\	.	8g#/L	.	.	.
.	8b/J)	.	.	8b/J)	.	.	.
*	*v	*v	*	*	*	*	*
*	*	*	*v	*v	*	*
!!LO:PB:g=original
=21	=21	=21	=21	=21	=21
*ped	*	*	*	*	*
4A 4E 4AA\	(4a 4c#/	.	[2a [2c#/	-dą!	.
4r	16ff#\LL	pp	.	.	.
.	16ee\	.	.	.	.
.	16cc#\	.	.	.	.
.	16b\JJ	.	.	.	.
=22	=22	=22	=22	=22	=22
2r	16a/LL	.	4a] 4c#/]	.	.
.	16f#/	.	.	.	.
.	16e/	.	.	.	.
.	16g#/JJ	.	.	.	.
.	16a\LL	.	4r	.	.
.	16cc#\	.	.	.	.
.	16ff#\	.	.	.	.
.	16ee\JJ	.	.	.	.
=23	=23	=23	=23	=23	=23
4r	8ccc#\)	.	2r	.	.
.	8r	.	.	.	.
4e 4A\	4aa 4cc#\	.	.	.	.
=24	=24	=24	=24	=24	=24
*Xped	*	*	*	*	*
2E 2AA;/	2a 2c#;/	.	2r;	.	.
==	==	==	==	==	==
*-	*-	*-	*-	*-	*-
!!!system-decoration: p1{p2}
!!!RDF**kern: > = above
!!!RDF**kern: < = below
!!!ENC: Andrzej Gręziak
!!!END: 2025-03-04
!!!ENC: Marta Lawrence
!!!END: 2025-03-20
